src/symbols/alphanum/1F202.svg

<svg id="emoji" viewBox="0 0 72 72" xmlns="http://www.w3.org/2000/svg">
  <g id="grid">
    <path fill="#b3b3b3" d="M68,4V68H4V4H68m4-4H0V72H72V0Z"/>
    <path fill="none" stroke="#00a5ff" stroke-miterlimit="10" stroke-width="0.1" d="M12.923,10.9583H59.0769A1.9231,1.9231,0,0,1,61,12.8814V59.0352a1.9231,1.9231,0,0,1-1.9231,1.9231H12.9231A1.9231,1.9231,0,0,1,11,59.0352V12.8813A1.923,1.923,0,0,1,12.923,10.9583Z"/>
    <rect x="16" y="4" rx="2.2537" width="40" height="64" fill="none" stroke="#00a5ff" stroke-miterlimit="10" stroke-width="0.1"/>
    <rect x="16" y="4" rx="2.2537" width="40" height="64" transform="translate(72) rotate(90)" fill="none" stroke="#00a5ff" stroke-miterlimit="10" stroke-width="0.1"/>
    <circle cx="36" cy="36" r="29" fill="none" stroke="#00a5ff" stroke-miterlimit="10" stroke-width="0.1"/>
  </g>
  <g id="color">
    <path fill="#d0cfce" stroke="none" stroke-miterlimit="10" stroke-width="2" d="M59.0349,60H12.9651 C12.4343,60,12,59.5657,12,59.0349V12.9651C12,12.4343,12.4343,12,12.9651,12h46.0698C59.5657,12,60,12.4343,60,12.9651v46.0698 C60,59.5657,59.5657,60,59.0349,60z"/>
  </g>
  <g id="hair"/>
  <g id="skin"/>
  <g id="skin-shadow"/>
  <g id="line">
    <path fill="none" stroke="#000000" stroke-miterlimit="10" stroke-width="2" d="M59.0349,60H12.9651 C12.4343,60,12,59.5657,12,59.0349V12.9651C12,12.4343,12.4343,12,12.9651,12h46.0698C59.5657,12,60,12.4343,60,12.9651v46.0698 C60,59.5657,59.5657,60,59.0349,60z"/>
    <path fill="#000000" stroke="none" d="M49.1406,29.8502h-5.4819v-4.7826c0-0.2754-0.2232-0.4986-0.4986-0.4986h-1.7307 c-0.2753,0-0.4985,0.2232-0.4985,0.4986v4.7826h-9.1624v-4.7826c0-0.2754-0.2232-0.4986-0.4985-0.4986h-1.7308 c-0.2753,0-0.4985,0.2232-0.4985,0.4986v4.7826h-6.1812c-0.2753,0-0.4985,0.2232-0.4985,0.4985v1.7307 c0,0.2753,0.2232,0.4985,0.4985,0.4985h6.1812v7.5797c0,0.2753,0.2232,0.4985,0.4985,0.4985h1.7308 c0.2753,0,0.4985-0.2232,0.4985-0.4985V32.578h9.1624v4.9091c0,2.9573-1.1118,5.7651-3.0502,7.7035 c-1.2888,1.2892-2.7015,2.003-4.2061,2.1261c-0.264,0.0216-0.4726,0.2267-0.4726,0.4916v1.736 c0,0.2834,0.2374,0.5209,0.5203,0.5042c2.2291-0.1318,4.2745-1.1155,6.0875-2.9292c2.4459-2.4459,3.8489-5.9564,3.8489-9.6321 V32.578h5.4819c0.2753,0,0.4985-0.2232,0.4985-0.4985v-1.7307C49.6391,30.0734,49.4159,29.8502,49.1406,29.8502z"/>
  </g>
</svg>

<svg viewBox="0 0 72 72" xmlns="http://www.w3.org/2000/svg"><path fill="#b3b3b3" d="M68 4v64H4V4h64m4-4H0v72h72V0z"/><path fill="none" stroke="#00a5ff" stroke-miterlimit="10" stroke-width=".1" d="M12.923 10.958h46.154A1.923 1.923 0 0161 12.881v46.154a1.923 1.923 0 01-1.923 1.923H12.923A1.923 1.923 0 0111 59.035V12.881a1.923 1.923 0 011.923-1.923z"/><rect x="16" y="4" rx="2.254" width="40" height="64" fill="none" stroke="#00a5ff" stroke-miterlimit="10" stroke-width=".1"/><rect x="16" y="4" rx="2.254" width="40" height="64" transform="rotate(90 36 36)" fill="none" stroke="#00a5ff" stroke-miterlimit="10" stroke-width=".1"/><circle cx="36" cy="36" r="29" fill="none" stroke="#00a5ff" stroke-miterlimit="10" stroke-width=".1"/><g stroke-linecap="round" stroke-miterlimit="10" stroke-width="6" stroke="#fff" fill="none" stroke-linejoin="round"><path d="M59.035 60h-46.07a.968.968 0 01-.965-.965v-46.07c0-.53.434-.965.965-.965h46.07c.53 0 .965.434.965.965v46.07c0 .53-.434.965-.965.965z"/><path d="M49.14 29.85h-5.48v-4.782a.499.499 0 00-.499-.499h-1.73a.499.499 0 00-.5.499v4.782h-9.162v-4.782a.499.499 0 00-.498-.499h-1.73a.499.499 0 00-.5.499v4.782h-6.18a.499.499 0 00-.499.499v1.73c0 .276.223.499.498.499h6.182v7.58c0 .275.223.498.498.498h1.731a.499.499 0 00.498-.498v-7.58h9.163v4.91c0 2.956-1.112 5.764-3.05 7.703-1.29 1.289-2.702 2.003-4.206 2.126a.5.5 0 00-.473.491v1.736c0 .284.237.521.52.505 2.23-.132 4.275-1.116 6.088-2.93 2.446-2.446 3.849-5.956 3.849-9.632v-4.909h5.482a.499.499 0 00.498-.498v-1.731a.499.499 0 00-.498-.499z"/></g><path fill="#d0cfce" d="M59.035 60h-46.07a.968.968 0 01-.965-.965v-46.07c0-.53.434-.965.965-.965h46.07c.53 0 .965.434.965.965v46.07c0 .53-.434.965-.965.965z"/><path fill="none" stroke="#000" stroke-miterlimit="10" stroke-width="2" d="M59.035 60h-46.07a.968.968 0 01-.965-.965v-46.07c0-.53.434-.965.965-.965h46.07c.53 0 .965.434.965.965v46.07c0 .53-.434.965-.965.965z"/><path d="M49.14 29.85h-5.48v-4.782a.499.499 0 00-.499-.499h-1.73a.499.499 0 00-.5.499v4.782h-9.162v-4.782a.499.499 0 00-.498-.499h-1.73a.499.499 0 00-.5.499v4.782h-6.18a.499.499 0 00-.499.499v1.73c0 .276.223.499.498.499h6.182v7.58c0 .275.223.498.498.498h1.731a.499.499 0 00.498-.498v-7.58h9.163v4.91c0 2.956-1.112 5.764-3.05 7.703-1.29 1.289-2.702 2.003-4.206 2.126a.5.5 0 00-.473.491v1.736c0 .284.237.521.52.505 2.23-.132 4.275-1.116 6.088-2.93 2.446-2.446 3.849-5.956 3.849-9.632v-4.909h5.482a.499.499 0 00.498-.498v-1.731a.499.499 0 00-.498-.499z"/></svg>
